src/sources/forus-platform/resources/_platform-common/assets/img/menu/icon-financial_dashboard-hover.svg

<svg xmlns="http://www.w3.org/2000/svg" width="30" height="30" viewBox="-5 -6.5 30 30"><path fill="#2987FD" d="M10 0C7.3 0 4.8 1.1 2.9 3 1.1 4.9 0 7.5 0 10.2c0 2.399.8 4.6 2.3 6.5.1.2.4.3.6.3H17c.2 0 .5-.1.6-.3 1.5-1.8 2.301-4.101 2.301-6.5C20.1 4.6 15.6.1 10 0zm6.7 15.3H3.3c-.9-1.2-1.5-2.7-1.6-4.2h2.5c.4-.1.8-.4.8-.9s-.4-.9-.8-.9H1.7c.2-1.7.8-3.2 1.8-4.5l.6.6c.3.3.8.3 1.2 0 .3-.3.3-.9 0-1.2l-.6-.6c1.3-1 2.8-1.7 4.5-1.9v2.5c0 .5.3.8.8.9.5 0 .8-.3.9-.8V1.7c1.6.2 3.2.8 4.4 1.9l-.6.6c-.3.3-.3.9 0 1.2.3.3.8.3 1.2 0l.6-.6c1 1.3 1.7 2.9 1.8 4.5h-2.5c-.5 0-.899.4-.899.9s.399.9.899.9h2.5c-.2 1.5-.7 3-1.6 4.2z"/><path fill="#004195" d="M10.1 11.899l2.4-4.8L7.8 9.5l2.3 2.399z"/></svg>

<?xml version="1.0" encoding="utf-8"?>
<!DOCTYPE svg PUBLIC "-//W3C//DTD SVG 1.1//EN" "http://www.w3.org/Graphics/SVG/1.1/DTD/svg11.dtd">
<svg version="1.1" id="Layer_1" xmlns="http://www.w3.org/2000/svg" xmlns:xlink="http://www.w3.org/1999/xlink" x="0px" y="0px"
	 width="30px" height="30px" viewBox="-5 -6.5 30 30" enable-background="new -5 -6.5 30 30" xml:space="preserve">
<path fill="#2987FD" d="M10,0C7.3,0,4.8,1.1,2.9,3C1.1,4.9,0,7.5,0,10.2c0,2.399,0.8,4.6,2.3,6.5C2.4,16.9,2.7,17,2.9,17H17
	c0.2,0,0.5-0.1,0.6-0.3c1.5-1.8,2.301-4.101,2.301-6.5C20.1,4.6,15.6,0.1,10,0z M16.7,15.3H3.3c-0.9-1.2-1.5-2.7-1.6-4.2h2.5
	C4.6,11,5,10.7,5,10.2S4.6,9.3,4.2,9.3H1.7c0.2-1.7,0.8-3.2,1.8-4.5l0.6,0.6c0.3,0.3,0.8,0.3,1.2,0c0.3-0.3,0.3-0.9,0-1.2L4.7,3.6
	c1.3-1,2.8-1.7,4.5-1.9v2.5C9.2,4.7,9.5,5,10,5.1c0.5,0,0.8-0.3,0.9-0.8c0,0,0,0,0-0.1V1.7C12.5,1.9,14.1,2.5,15.3,3.6l-0.6,0.6
	c-0.3,0.3-0.3,0.9,0,1.2c0.3,0.3,0.8,0.3,1.2,0l0.6-0.6c1,1.3,1.7,2.9,1.8,4.5h-2.5c-0.5,0-0.899,0.4-0.899,0.9S15.3,11.1,15.8,11.1
	h2.5C18.1,12.6,17.6,14.1,16.7,15.3z"/>
<path fill="#004195" d="M10.1,11.899l2.4-4.8L7.8,9.5L10.1,11.899z"/>
</svg>
